X:18727
T:White Cockade. JMT.064
M:2/4
L:1/8
Q:180
S:J.Moore,Tyneside,1841.(45c)
R:Measure
O:England
A:Northumbria
Z:vmp.Chris Partington
K:G
g|dB BA/G/|BB Bg|dB BA/G/|FA AG/A/|BB c/-B/A/-G/|!Bd ga|b/a/g/f/ a/g/f/e
/|dB B:|
|:B/c/|dB gB|dd dB/c/|!dB gf/g/|aA AG/A/|BB c/-B/A/-G/|Bd ga|b/a/g/f/ a/
g/f/e/|dB B:|]


